24x24/apps/net.meijn.onvifviewer.svg

<svg height="24" width="24" xmlns="http://www.w3.org/2000/svg"><circle cx="12" cy="12.5" opacity=".2" r="10"/><circle cx="12" cy="12" fill="#f4f4f7" r="10"/><path d="m18.838 7.5-10.838 2.809 1.162 4.191 3.92-1.016a1.5 1.5 0 0 0 .918.928v2.588a.5.5 0 0 0 .5.5h4.5v-1h-4v-2.088a1.5 1.5 0 0 0 1-1.412 1.5 1.5 0 0 0 -.023-.266l4.023-1.043zm-14.838 3.5 1.338 5 2.662-2.055-.67-2.5z" opacity=".1"/><g fill="#17191e"><path d="m5.09 11.5h11.196v4.35h-11.196z" transform="matrix(.96804 -.2508 .26705 .96368 0 0)"/><path d="m4 10.5 1.338 5 2.662-2.054-.67-2.5zm10 3h1v3h-1z"/><path d="m14.5 16h4.5v1h-4.5z"/><circle cx="14.5" cy="16.5" r=".5"/><circle cx="14.5" cy="12.5" r="1.5"/></g><path d="m12 2c-5.54 0-10 4.46-10 10 0 .084.004.166.006.25a9.976 9.976 0 0 1 9.994-9.75 9.976 9.976 0 0 1 9.994 9.75c.002-.083.006-.166.006-.25 0-5.54-4.46-10-10-10z" fill="#f4f4f7" opacity=".2"/></svg>

<svg xmlns="http://www.w3.org/2000/svg" width="24" height="24" version="1"><circle style="opacity:.2" cx="12" cy="12.5" r="10"/><circle style="fill:#f4f4f7" cx="12" cy="12" r="10"/><path style="opacity:.1" d="M18.838 7.5 8 10.309 9.162 14.5l3.92-1.016a1.5 1.5 0 0 0 .918.928V17a.5.5 0 0 0 .5.5H19v-1h-4v-2.088A1.5 1.5 0 0 0 16 13a1.5 1.5 0 0 0-.023-.266L20 11.691zM4 11l1.338 5L8 13.945l-.67-2.5z"/><path style="fill:#17191e" transform="matrix(.96804 -.2508 .26705 .96368 0 0)" d="M5.09 11.5h11.196v4.35H5.09z"/><path style="fill:#17191e" d="m4 10.5 1.338 5L8 13.446l-.67-2.5zM14 13.5h1v3h-1z"/><path style="fill:#17191e" d="M14.5 16H19v1h-4.5z"/><circle style="fill:#17191e" cx="14.5" cy="16.5" r=".5"/><circle style="fill:#17191e" cx="14.5" cy="12.5" r="1.5"/><path style="opacity:.2;fill:#f4f4f7" d="M12 2C6.46 2 2 6.46 2 12c0 .084.004.166.006.25A9.976 9.976 0 0 1 12 2.5a9.976 9.976 0 0 1 9.994 9.75c.002-.083.006-.166.006-.25 0-5.54-4.46-10-10-10z"/></svg>
